static/img/kroki/6eacecf85c08f420e632bb246a37f927.svg

<?xml version="1.0" encoding="us-ascii" standalone="no"?><svg xmlns="http://www.w3.org/2000/svg" xmlns:xlink="http://www.w3.org/1999/xlink" contentStyleType="text/css" height="352px" preserveAspectRatio="none" style="width:771px;height:352px;" version="1.1" viewBox="0 0 771 352" width="771px" zoomAndPan="magnify"><defs/><g><!--class aws_cognito_group--><g id="elem_aws_cognito_group"><rect codeLine="22" fill="#3D176E" height="39.7891" id="aws_cognito_group" rx="2.5" ry="2.5" style="stroke:#000D19;stroke-width:0.5;" width="202" x="7" y="206.58"/><ellipse cx="22" cy="226.4745" fill="#ADD1B2" rx="11" ry="11" style="stroke:#181818;stroke-width:1.0;"/><path d="M24.9688,232.1152 Q24.3906,232.412 23.75,232.5527 Q23.1094,232.7089 22.4063,232.7089 Q19.9063,232.7089 18.5781,231.0683 Q17.2656,229.412 17.2656,226.287 Q17.2656,223.162 18.5781,221.5058 Q19.9063,219.8495 22.4063,219.8495 Q23.1094,219.8495 23.75,220.0058 Q24.4063,220.162 24.9688,220.4589 L24.9688,223.1777 Q24.3438,222.5995 23.75,222.3339 Q23.1563,222.0527 22.5313,222.0527 Q21.1875,222.0527 20.5,223.1308 Q19.8125,224.1933 19.8125,226.287 Q19.8125,228.3808 20.5,229.4589 Q21.1875,230.5214 22.5313,230.5214 Q23.1563,230.5214 23.75,230.2558 Q24.3438,229.9745 24.9688,229.3964 L24.9688,232.1152 Z " fill="#000000"/><text fill="#D9B8FF" font-family="Helvetica" font-size="17" lengthAdjust="spacing" textLength="160" x="41" y="232.3598">aws_cognito_group</text></g><!--class aws_cognito_user--><g id="elem_aws_cognito_user"><rect codeLine="24" fill="#3D176E" height="39.7891" id="aws_cognito_user" rx="2.5" ry="2.5" style="stroke:#000D19;stroke-width:0.5;" width="190" x="244" y="206.58"/><ellipse cx="259" cy="226.4745" fill="#ADD1B2" rx="11" ry="11" style="stroke:#181818;stroke-width:1.0;"/><path d="M261.9688,232.1152 Q261.3906,232.412 260.75,232.5527 Q260.1094,232.7089 259.4063,232.7089 Q256.9063,232.7089 255.5781,231.0683 Q254.2656,229.412 254.2656,226.287 Q254.2656,223.162 255.5781,221.5058 Q256.9063,219.8495 259.4063,219.8495 Q260.1094,219.8495 260.75,220.0058 Q261.4063,220.162 261.9688,220.4589 L261.9688,223.1777 Q261.3438,222.5995 260.75,222.3339 Q260.1563,222.0527 259.5313,222.0527 Q258.1875,222.0527 257.5,223.1308 Q256.8125,224.1933 256.8125,226.287 Q256.8125,228.3808 257.5,229.4589 Q258.1875,230.5214 259.5313,230.5214 Q260.1563,230.5214 260.75,230.2558 Q261.3438,229.9745 261.9688,229.3964 L261.9688,232.1152 Z " fill="#000000"/><text fill="#D9B8FF" font-family="Helvetica" font-size="17" lengthAdjust="spacing" textLength="148" x="278" y="232.3598">aws_cognito_user</text></g><!--class aws_cognito_user_pool--><g id="elem_aws_cognito_user_pool"><rect codeLine="26" fill="#3D176E" height="39.7891" id="aws_cognito_user_pool" rx="2.5" ry="2.5" style="stroke:#000D19;stroke-width:0.5;" width="234" x="222" y="106.79"/><ellipse cx="237" cy="126.6845" fill="#ADD1B2" rx="11" ry="11" style="stroke:#181818;stroke-width:1.0;"/><path d="M239.9688,132.3252 Q239.3906,132.622 238.75,132.7627 Q238.1094,132.9189 237.4063,132.9189 Q234.9063,132.9189 233.5781,131.2783 Q232.2656,129.622 232.2656,126.497 Q232.2656,123.372 233.5781,121.7158 Q234.9063,120.0595 237.4063,120.0595 Q238.1094,120.0595 238.75,120.2158 Q239.4063,120.372 239.9688,120.6689 L239.9688,123.3877 Q239.3438,122.8095 238.75,122.5439 Q238.1563,122.2627 237.5313,122.2627 Q236.1875,122.2627 235.5,123.3408 Q234.8125,124.4033 234.8125,126.497 Q234.8125,128.5908 235.5,129.6689 Q236.1875,130.7314 237.5313,130.7314 Q238.1563,130.7314 238.75,130.4658 Q239.3438,130.1845 239.9688,129.6064 L239.9688,132.3252 Z " fill="#000000"/><text fill="#D9B8FF" font-family="Helvetica" font-size="17" lengthAdjust="spacing" textLength="192" x="256" y="132.5698">aws_cognito_user_pool</text></g><!--class aws_kms_key--><g id="elem_aws_kms_key"><rect codeLine="28" fill="#3D176E" height="39.7891" id="aws_kms_key" rx="2.5" ry="2.5" style="stroke:#000D19;stroke-width:0.5;" width="158" x="490" y="306.37"/><ellipse cx="505" cy="326.2645" fill="#ADD1B2" rx="11" ry="11" style="stroke:#181818;stroke-width:1.0;"/><path d="M507.9688,331.9052 Q507.3906,332.202 506.75,332.3427 Q506.1094,332.4989 505.4063,332.4989 Q502.9063,332.4989 501.5781,330.8583 Q500.2656,329.202 500.2656,326.077 Q500.2656,322.952 501.5781,321.2958 Q502.9063,319.6395 505.4063,319.6395 Q506.1094,319.6395 506.75,319.7958 Q507.4063,319.952 507.9688,320.2489 L507.9688,322.9677 Q507.3438,322.3895 506.75,322.1239 Q506.1563,321.8427 505.5313,321.8427 Q504.1875,321.8427 503.5,322.9208 Q502.8125,323.9833 502.8125,326.077 Q502.8125,328.1708 503.5,329.2489 Q504.1875,330.3114 505.5313,330.3114 Q506.1563,330.3114 506.75,330.0458 Q507.3438,329.7645 507.9688,329.1864 L507.9688,331.9052 Z " fill="#000000"/><text fill="#D9B8FF" font-family="Helvetica" font-size="17" lengthAdjust="spacing" textLength="116" x="524" y="332.1498">aws_kms_key</text></g><!--class aws_lambda_function--><g id="elem_aws_lambda_function"><rect codeLine="30" fill="#3D176E" height="39.7891" id="aws_lambda_function" rx="2.5" ry="2.5" style="stroke:#000D19;stroke-width:0.5;" width="224" x="540" y="206.58"/><ellipse cx="555" cy="226.4745" fill="#ADD1B2" rx="11" ry="11" style="stroke:#181818;stroke-width:1.0;"/><path d="M557.9688,232.1152 Q557.3906,232.412 556.75,232.5527 Q556.1094,232.7089 555.4063,232.7089 Q552.9063,232.7089 551.5781,231.0683 Q550.2656,229.412 550.2656,226.287 Q550.2656,223.162 551.5781,221.5058 Q552.9063,219.8495 555.4063,219.8495 Q556.1094,219.8495 556.75,220.0058 Q557.4063,220.162 557.9688,220.4589 L557.9688,223.1777 Q557.3438,222.5995 556.75,222.3339 Q556.1563,222.0527 555.5313,222.0527 Q554.1875,222.0527 553.5,223.1308 Q552.8125,224.1933 552.8125,226.287 Q552.8125,228.3808 553.5,229.4589 Q554.1875,230.5214 555.5313,230.5214 Q556.1563,230.5214 556.75,230.2558 Q557.3438,229.9745 557.9688,229.3964 L557.9688,232.1152 Z " fill="#000000"/><text fill="#D9B8FF" font-family="Helvetica" font-size="17" lengthAdjust="spacing" textLength="182" x="574" y="232.3598">aws_lambda_function</text></g><!--class aws_sagemaker_workteam--><g id="elem_aws_sagemaker_workteam"><rect codeLine="32" fill="#3D176E" height="39.7891" id="aws_sagemaker_workteam" rx="2.5" ry="2.5" style="stroke:#000D19;stroke-width:0.5;" width="271" x="88.5" y="7"/><ellipse cx="103.5" cy="26.8945" fill="#ADD1B2" rx="11" ry="11" style="stroke:#181818;stroke-width:1.0;"/><path d="M106.4688,32.5352 Q105.8906,32.832 105.25,32.9727 Q104.6094,33.1289 103.9063,33.1289 Q101.4063,33.1289 100.0781,31.4883 Q98.7656,29.832 98.7656,26.707 Q98.7656,23.582 100.0781,21.9258 Q101.4063,20.2695 103.9063,20.2695 Q104.6094,20.2695 105.25,20.4258 Q105.9063,20.582 106.4688,20.8789 L106.4688,23.5977 Q105.8438,23.0195 105.25,22.7539 Q104.6563,22.4727 104.0313,22.4727 Q102.6875,22.4727 102,23.5508 Q101.3125,24.6133 101.3125,26.707 Q101.3125,28.8008 102,29.8789 Q102.6875,30.9414 104.0313,30.9414 Q104.6563,30.9414 105.25,30.6758 Q105.8438,30.3945 106.4688,29.8164 L106.4688,32.5352 Z " fill="#000000"/><text fill="#D9B8FF" font-family="Helvetica" font-size="17" lengthAdjust="spacing" textLength="229" x="122.5" y="32.7798">aws_sagemaker_workteam</text></g><!--link aws_cognito_user_pool to aws_cognito_group--><g id="link_aws_cognito_user_pool_aws_cognito_group"><path codeLine="34" d="M293.36,147.01 C254.6,163.41 199.04,186.94 158.86,203.95 " fill="none" id="aws_cognito_user_pool-to-aws_cognito_group" style="stroke:#1A83AF;stroke-width:2.0;"/><polygon fill="#1A83AF" points="154.54,206.2,164.3872,206.3831,159.146,204.2546,161.2745,199.0135,154.54,206.2" style="stroke:#1A83AF;stroke-width:2.0;"/></g><!--link aws_cognito_user_pool to aws_cognito_user--><g id="link_aws_cognito_user_pool_aws_cognito_user"><path codeLine="35" d="M339,147.01 C339,162.28 339,183.71 339,200.32 " fill="none" id="aws_cognito_user_pool-to-aws_cognito_user" style="stroke:#1A83AF;stroke-width:2.0;"/><polygon fill="#1A83AF" points="339,205.2,343,196.2,339,200.2,335,196.2,339,205.2" style="stroke:#1A83AF;stroke-width:2.0;"/></g><!--link aws_cognito_user_pool to aws_kms_key--><g id="link_aws_cognito_user_pool_aws_kms_key"><path codeLine="36" d="M369.84,147.02 C393.21,162.17 425.67,184.36 452,206.58 C488.16,237.1 525.87,277.06 548.39,301.95 " fill="none" id="aws_cognito_user_pool-to-aws_kms_key" style="stroke:#1A83AF;stroke-width:2.0;"/><polygon fill="#1A83AF" points="551.14,305.11,548.0726,295.751,547.7873,301.4006,542.1376,301.1153,551.14,305.11" style="stroke:#1A83AF;stroke-width:2.0;"/></g><!--link aws_cognito_user_pool to aws_lambda_function--><g id="link_aws_cognito_user_pool_aws_lambda_function"><path codeLine="37" d="M400.84,147.01 C453.8,163.55 529.94,187.34 584.48,204.38 " fill="none" id="aws_cognito_user_pool-to-aws_lambda_function" style="stroke:#1A83AF;stroke-width:2.0;"/><polygon fill="#1A83AF" points="589.02,206.11,581.6161,199.6152,584.2461,204.6235,579.2377,207.2535,589.02,206.11" style="stroke:#1A83AF;stroke-width:2.0;"/></g><!--link aws_lambda_function to aws_kms_key--><g id="link_aws_lambda_function_aws_kms_key"><path codeLine="38" d="M635.6,246.8 C622.19,262.6 603.17,285.01 588.89,301.84 " fill="none" id="aws_lambda_function-to-aws_kms_key" style="stroke:#1A83AF;stroke-width:2.0;"/><polygon fill="#1A83AF" points="585.36,304.99,594.2449,300.7406,588.6057,301.1867,588.1596,295.5474,585.36,304.99" style="stroke:#1A83AF;stroke-width:2.0;"/></g><!--link aws_sagemaker_workteam to aws_cognito_group--><g id="link_aws_sagemaker_workteam_aws_cognito_group"><path codeLine="39" d="M212.67,47.2 C191.44,83.35 145.75,161.19 122.39,200.97 " fill="none" id="aws_sagemaker_workteam-to-aws_cognito_group" style="stroke:#1A83AF;stroke-width:2.0;"/><polygon fill="#1A83AF" points="119.38,205.09,127.3818,199.3479,121.9082,200.7763,120.4799,195.3027,119.38,205.09" style="stroke:#1A83AF;stroke-width:2.0;"/></g><!--link aws_sagemaker_workteam to aws_cognito_user_pool--><g id="link_aws_sagemaker_workteam_aws_cognito_user_pool"><path codeLine="40" d="M246.72,47.22 C265.46,63.16 292.11,85.81 311.95,102.68 " fill="none" id="aws_sagemaker_workteam-to-aws_cognito_user_pool" style="stroke:#1A83AF;stroke-width:2.0;"/><polygon fill="#1A83AF" points="315.33,106.41,311.0806,97.5251,311.5267,103.1643,305.8874,103.6104,315.33,106.41" style="stroke:#1A83AF;stroke-width:2.0;"/></g><!--SRC=[bP3DJiCm48JlVGfBFLTggA3j1IbKgk1I8SeDeMWJhrChiJUo7QA2U7SIMghWf7y7NtQ-zSpiHd9ag0gtPGfLZCOER2Pr0GOK2usXQa4v6JOK0iHawejBqkuii0A5x17p3tGo0PzutSWaqsWjksb93v1agQ5Iyzttpe2sjOJQjQX53jQ6pXaPbmvROVWydWdXa_wdmmaFfdVOmSXmD7jaF1xpOEuZPwrEzZuGQ_c9B6WVRKKEEp4x5h_KoPGDqGhPAVgd7ytu39nBdRBRrknbbybeDF_cwmrmgXfQG6xRDjQXGNBR0XUTLZYVSJ7jXP-EmKbpEGQLZH9AjNGKDLJ1lWRVFLffww37fQWWoZqzK_N3hJVDGSKS8b7gn4dIdceXHGLP_M559dDOLsc0VhlHsp08PvDm-JwwxnQvTgb1BjtPLxiKzpeF-kvmqgFdB1UKlsRhaFu7]--></g></svg>

<svg xmlns="http://www.w3.org/2000/svg" width="771" height="352" preserveAspectRatio="none" style="width:771px;height:352px"><rect width="202" height="39.789" x="7" y="206.58" fill="#3D176E" rx="2.5" ry="2.5" style="stroke:#000d19;stroke-width:.5"/><circle cx="22" cy="226.475" r="11" fill="#ADD1B2" style="stroke:#181818;stroke-width:1"/><path d="M24.969 232.115q-.578.297-1.219.438-.64.156-1.344.156-2.5 0-3.828-1.64-1.312-1.657-1.312-4.782t1.312-4.781q1.328-1.656 3.828-1.656.703 0 1.344.156.656.156 1.219.453v2.719q-.625-.578-1.219-.844-.594-.281-1.219-.281-1.343 0-2.031 1.078-.688 1.062-.688 3.156 0 2.094.688 3.172.688 1.062 2.031 1.062.625 0 1.219-.265.594-.281 1.219-.86v2.72Z"/><text x="41" y="232.36" fill="#D9B8FF" font-family="Helvetica" font-size="17" textLength="160">aws_cognito_group</text><rect width="190" height="39.789" x="244" y="206.58" fill="#3D176E" rx="2.5" ry="2.5" style="stroke:#000d19;stroke-width:.5"/><circle cx="259" cy="226.475" r="11" fill="#ADD1B2" style="stroke:#181818;stroke-width:1"/><path d="M261.969 232.115q-.578.297-1.219.438-.64.156-1.344.156-2.5 0-3.828-1.64-1.312-1.657-1.312-4.782t1.312-4.781q1.328-1.656 3.828-1.656.703 0 1.344.156.656.156 1.219.453v2.719q-.625-.578-1.219-.844-.594-.281-1.219-.281-1.344 0-2.031 1.078-.688 1.062-.688 3.156 0 2.094.688 3.172.688 1.062 2.031 1.062.625 0 1.219-.265.594-.281 1.219-.86v2.72Z"/><text x="278" y="232.36" fill="#D9B8FF" font-family="Helvetica" font-size="17" textLength="148">aws_cognito_user</text><rect width="234" height="39.789" x="222" y="106.79" fill="#3D176E" rx="2.5" ry="2.5" style="stroke:#000d19;stroke-width:.5"/><circle cx="237" cy="126.684" r="11" fill="#ADD1B2" style="stroke:#181818;stroke-width:1"/><path d="M239.969 132.325q-.578.297-1.219.438-.64.156-1.344.156-2.5 0-3.828-1.64-1.312-1.657-1.312-4.782t1.312-4.781q1.328-1.656 3.828-1.656.703 0 1.344.156.656.156 1.219.453v2.719q-.625-.579-1.219-.844-.594-.281-1.219-.281-1.344 0-2.031 1.078-.688 1.062-.688 3.156 0 2.094.688 3.172.688 1.062 2.031 1.062.625 0 1.219-.265.594-.281 1.219-.86v2.72Z"/><text x="256" y="132.57" fill="#D9B8FF" font-family="Helvetica" font-size="17" textLength="192">aws_cognito_user_pool</text><rect width="158" height="39.789" x="490" y="306.37" fill="#3D176E" rx="2.5" ry="2.5" style="stroke:#000d19;stroke-width:.5"/><circle cx="505" cy="326.264" r="11" fill="#ADD1B2" style="stroke:#181818;stroke-width:1"/><path d="M507.969 331.905q-.578.297-1.219.438-.64.156-1.344.156-2.5 0-3.828-1.64-1.312-1.657-1.312-4.782t1.312-4.781q1.328-1.656 3.828-1.656.703 0 1.344.156.656.156 1.219.453v2.719q-.625-.579-1.219-.844-.594-.281-1.219-.281-1.344 0-2.031 1.078-.688 1.062-.688 3.156 0 2.094.688 3.172.688 1.062 2.031 1.062.625 0 1.219-.265.594-.281 1.219-.86v2.72Z"/><text x="524" y="332.15" fill="#D9B8FF" font-family="Helvetica" font-size="17" textLength="116">aws_kms_key</text><rect width="224" height="39.789" x="540" y="206.58" fill="#3D176E" rx="2.5" ry="2.5" style="stroke:#000d19;stroke-width:.5"/><circle cx="555" cy="226.475" r="11" fill="#ADD1B2" style="stroke:#181818;stroke-width:1"/><path d="M557.969 232.115q-.578.297-1.219.438-.64.156-1.344.156-2.5 0-3.828-1.64-1.312-1.657-1.312-4.782t1.312-4.781q1.328-1.656 3.828-1.656.703 0 1.344.156.656.156 1.219.453v2.719q-.625-.578-1.219-.844-.594-.281-1.219-.281-1.343 0-2.031 1.078-.688 1.062-.688 3.156 0 2.094.688 3.172.688 1.062 2.031 1.062.625 0 1.219-.265.594-.281 1.219-.86v2.72Z"/><text x="574" y="232.36" fill="#D9B8FF" font-family="Helvetica" font-size="17" textLength="182">aws_lambda_function</text><rect width="271" height="39.789" x="88.5" y="7" fill="#3D176E" rx="2.5" ry="2.5" style="stroke:#000d19;stroke-width:.5"/><circle cx="103.5" cy="26.895" r="11" fill="#ADD1B2" style="stroke:#181818;stroke-width:1"/><path d="M106.469 32.535q-.578.297-1.219.438-.64.156-1.344.156-2.5 0-3.828-1.64-1.312-1.657-1.312-4.782t1.312-4.781q1.328-1.656 3.828-1.656.703 0 1.344.156.656.156 1.219.453v2.719q-.625-.578-1.219-.844-.594-.281-1.219-.281-1.344 0-2.031 1.078-.688 1.062-.688 3.156 0 2.094.688 3.172.688 1.062 2.031 1.062.625 0 1.219-.265.594-.281 1.219-.86v2.72Z"/><text x="122.5" y="32.78" fill="#D9B8FF" font-family="Helvetica" font-size="17" textLength="229">aws_sagemaker_workteam</text><path fill="none" d="M293.36 147.01c-38.76 16.4-94.32 39.93-134.5 56.94" style="stroke:#1a83af;stroke-width:2"/><path fill="#1A83AF" d="m154.54 206.2 9.847.183-5.241-2.128 2.129-5.242-6.735 7.187z" style="stroke:#1a83af;stroke-width:2"/><path fill="none" d="M339 147.01v53.31" style="stroke:#1a83af;stroke-width:2"/><path fill="#1A83AF" d="m339 205.2 4-9-4 4-4-4 4 9z" style="stroke:#1a83af;stroke-width:2"/><path fill="none" d="M369.84 147.02c23.37 15.15 55.83 37.34 82.16 59.56 36.16 30.52 73.87 70.48 96.39 95.37" style="stroke:#1a83af;stroke-width:2"/><path fill="#1A83AF" d="m551.14 305.11-3.067-9.359-.286 5.65-5.65-.286 9.003 3.995z" style="stroke:#1a83af;stroke-width:2"/><path fill="none" d="M400.84 147.01c52.96 16.54 129.1 40.33 183.64 57.37" style="stroke:#1a83af;stroke-width:2"/><path fill="#1A83AF" d="m589.02 206.11-7.404-6.495 2.63 5.008-5.008 2.63 9.782-1.143z" style="stroke:#1a83af;stroke-width:2"/><path fill="none" d="M635.6 246.8c-13.41 15.8-32.43 38.21-46.71 55.04" style="stroke:#1a83af;stroke-width:2"/><path fill="#1A83AF" d="m585.36 304.99 8.885-4.25-5.64.447-.445-5.64-2.8 9.443z" style="stroke:#1a83af;stroke-width:2"/><path fill="none" d="M212.67 47.2c-21.23 36.15-66.92 113.99-90.28 153.77" style="stroke:#1a83af;stroke-width:2"/><path fill="#1A83AF" d="m119.38 205.09 8.002-5.742-5.474 1.428-1.428-5.473-1.1 9.787z" style="stroke:#1a83af;stroke-width:2"/><path fill="none" d="M246.72 47.22c18.74 15.94 45.39 38.59 65.23 55.46" style="stroke:#1a83af;stroke-width:2"/><path fill="#1A83AF" d="m315.33 106.41-4.25-8.885.447 5.64-5.64.445 9.443 2.8z" style="stroke:#1a83af;stroke-width:2"/></svg>
